X:1644
T:Blueberry Bonnach
R:jig
C:Paul S. Cranford
O:20th Century Cape Breton
D:The Lighthouse, Cranford Publications
B:The Lighthouse Collection, ISBN 0-9691181-5-5
N:Contacts ...
N:..... Cranford Publications <http://www.cranfordpub.com>
H:Composed for Captain Andy Patterson, Cutler, Me
Z:Paul Stewart Cranford 
Q:288
L:1/8
M:6/8
K:Ador
E|A3 BAG|efg edB|AAA BAG|BAG EFG|!
A2 A BAG|efg edB|eAe dBG|A3 A2:|!
|:e|a3 beb|aea ged|(e/f/ge) dBG|eAe dBG|!
[1a3 beb|aea ged|(e/f/ge) dBG|A3 A2:|!
[2A3 BAG|efg edB|eAe dBG|A3 A2|]!
